svg/furkot/freepik/farmstand.svg

<svg viewBox="0 0 512 512" xmlns="http://www.w3.org/2000/svg"><path d="m481.03 195.172-37.563-139.043c-1.153-4.248-2.933-8.259-5.075-12.037 3.18-4.549 5.075-10.06 5.075-16.03 0-15.502-12.57-28.062-28.061-28.062h-321.455c-15.499 0-28.055 12.566-28.055 28.062 0 7.755 3.137 14.771 8.233 19.855-2.092 3.705-3.822 7.65-4.949 11.812l-37.558 139.043c-5.084 18.825 2.302 34.713 16.772 38.497v275.365h418.215v-279.879c12.83-4.863 19.2-19.851 14.421-37.583zm-120.478-115.744 31.737 117.478c.488 1.829 1.218 3.581 1.914 5.34-14.174 23.205-34.767 33.283-57.206 27.702-19.698-4.887-33.442-20.004-33.74-30.726v-114.379c0-1.852-.279-3.637-.553-5.413h57.848zm-240.188 121.084 32.705-121.084h55.071c-.28 1.778-.552 3.562-.552 5.413v116.53l-.07-.035c-13.095 24.769-33.334 35.823-55.501 30.315-18.376-4.557-31.186-18.746-31.186-28.619h-1.382c.293-.85.68-1.655.915-2.52zm228.018 283.541h-225.629v-90.249h40.49c3.881-8.758 12.616-14.883 22.819-14.883 10.187 0 18.934 6.125 22.807 14.883h82.408c1.158-12.715 11.732-22.705 24.751-22.705 13.007 0 23.586 9.99 24.738 22.705h7.62v90.249zm-179.172-122.74c0-9.711 7.885-17.593 17.602-17.593s17.594 7.883 17.594 17.593c0 9.726-7.878 17.608-17.594 17.608s-17.602-7.882-17.602-17.608zm129.965-7.821c0-9.712 7.879-17.597 17.594-17.597 9.719 0 17.598 7.886 17.598 17.597 0 9.722-7.88 17.607-17.598 17.607-9.715 0-17.594-7.885-17.594-17.607zm145.777 137.484h-27.677v-182.603h-317.682v182.603h-29.538v-252.524l6.358.123c15.047.304 30.742-11.003 39.242-26.717 4.856 11.748 18.46 22.797 34.634 26.81 3.158.782 7.569 1.549 12.742 1.549 12.746 0 30.095-4.688 44.61-25.237.274 19.583 16.278 28.403 36.049 28.403h23.464c17.051 0 31.244-11.856 35.034-27.746 6.984 9.605 19.18 17.88 33.08 21.323 3.379.842 8.114 1.661 13.647 1.661 14.003 0 33.17-5.303 48.968-28.748 8.668 14.864 23.819 25.379 38.351 25.096l8.718-.17z"/></svg>

<svg xmlns="http://www.w3.org/2000/svg" viewBox="0 0 512 512"><path d="M481.03 195.172L443.467 56.129C442.314 51.881 440.534 47.87 438.392 44.092 441.572 39.543 443.467 34.032 443.467 28.062 443.467 12.56 430.897 0 415.406 0H93.951C78.452 0 65.896 12.566 65.896 28.062 65.896 35.817 69.033 42.833 74.129 47.917 72.037 51.622 70.307 55.567 69.18 59.729L31.622 198.772C26.538 217.597 33.924 233.485 48.394 237.269V512.634H466.609V232.755C479.439 227.892 485.809 212.904 481.03 195.172ZM360.552 79.428L392.289 196.906C392.777 198.735 393.507 200.487 394.203 202.246 380.029 225.451 359.436 235.529 336.997 229.948 317.299 225.061 303.555 209.944 303.257 199.222V84.843C303.257 82.991 302.978 81.206 302.704 79.43H360.552ZM120.364 200.512L153.069 79.428H208.14C207.86 81.206 207.588 82.99 207.588 84.841V201.371L207.518 201.336C194.423 226.105 174.184 237.159 152.017 231.651 133.641 227.094 120.831 212.905 120.831 203.032H119.449C119.742 202.182 120.129 201.377 120.364 200.512ZM348.382 484.053H122.753V393.804H163.243C167.124 385.046 175.859 378.921 186.062 378.921 196.249 378.921 204.996 385.046 208.869 393.804H291.277C292.435 381.089 303.009 371.099 316.028 371.099 329.035 371.099 339.614 381.089 340.766 393.804H348.386V484.053H348.382ZM169.21 361.313C169.21 351.602 177.095 343.72 186.812 343.72S204.406 351.603 204.406 361.313C204.406 371.039 196.528 378.921 186.812 378.921S169.21 371.039 169.21 361.313ZM299.175 353.492C299.175 343.78 307.054 335.895 316.769 335.895 326.488 335.895 334.367 343.781 334.367 353.492 334.367 363.214 326.487 371.099 316.769 371.099 307.054 371.099 299.175 363.214 299.175 353.492ZM444.952 490.976H417.275V308.373H99.593V490.976H70.055V238.452L76.413 238.575C91.46 238.879 107.155 227.572 115.655 211.858 120.511 223.606 134.115 234.655 150.289 238.668 153.447 239.45 157.858 240.217 163.031 240.217 175.777 240.217 193.126 235.529 207.641 214.98 207.915 234.563 223.919 243.383 243.69 243.383H267.154C284.205 243.383 298.398 231.527 302.188 215.637 309.172 225.242 321.368 233.517 335.268 236.96 338.647 237.802 343.382 238.621 348.915 238.621 362.918 238.621 382.085 233.318 397.883 209.873 406.551 224.737 421.702 235.252 436.234 234.969L444.952 234.799V490.976Z"/></svg>
